icons/1_Primary/DonDominio.svg

<svg xmlns="http://www.w3.org/2000/svg" width="1024" height="1024" fill="none">
   <g clip-path="url(#a)">
      <path fill="#F8C18C" d="M512 1024c282.77 0 512-229.23 512-512S794.77 0 512 0 0 229.23 0 512s229.23 512 512 512Z"/>
      <path fill="#fff" d="M771.44 498c-8.71-125-98.98-203-227.61-213.45H327.66c-16 3.87-24.66 14.35-29.66 29.66V708.5c3.87 18.7 18.22 27.57 37.4 31h207.3c129.76-6.18 238.09-101.28 228.74-241.5ZM574.61 661.27s-1.61-41.75-3.87-63.83c-31.27-5-58.84-9.83-84.14-21.92-68.67-33-157.81-129.76-157.81-196.34 69.31 39.65 127.67 99.62 233.74 84.15L553.17 399s112.68 77.05 163.29 109.94C670.2 560 574.61 661.27 574.61 661.27Z"/>
   </g>
   <defs>
      <clipPath id="a">
         <path fill="#fff" d="M0 0h1024v1024H0z"/>
      </clipPath>
   </defs>
</svg>

<svg width="1024" height="1024" viewBox="0 0 1024 1024" fill="none" xmlns="http://www.w3.org/2000/svg">
<g clip-path="url(#clip0_2_2052)">
<path d="M512 1024C794.77 1024 1024 794.77 1024 512C1024 229.23 794.77 0 512 0C229.23 0 0 229.23 0 512C0 794.77 229.23 1024 512 1024Z" fill="#F8C18C"/>
<path d="M771.44 498C762.73 373 672.46 295 543.83 284.55H327.66C311.66 288.42 303 298.9 298 314.21V708.5C301.87 727.2 316.22 736.07 335.4 739.5H542.7C672.46 733.32 780.79 638.22 771.44 498ZM574.61 661.27C574.61 661.27 573 619.52 570.74 597.44C539.47 592.44 511.9 587.61 486.6 575.52C417.93 542.52 328.79 445.76 328.79 379.18C398.1 418.83 456.46 478.8 562.53 463.33L553.17 399C553.17 399 665.85 476.05 716.46 508.94C670.2 560 574.61 661.27 574.61 661.27Z" fill="white"/>
</g>
<defs>
<clipPath id="clip0_2_2052">
<rect width="1024" height="1024" fill="white"/>
</clipPath>
</defs>
</svg>
